svg/300/outlined/coffee.svg

<svg xmlns="http://www.w3.org/2000/svg" width="48" height="48" viewBox="0 -960 960 960"><path d="M446.616-257.001q-109.461 0-188.038-74.23-78.577-74.231-78.577-181.923v-261.461q0-18.846 13.269-32.115 13.269-13.269 32.115-13.269h516.307q48.554 0 83.43 32.962 34.877 32.961 34.877 81.191 0 54.198-33.539 95.021-33.538 40.824-84.768 40.824h-32.693v56.847q0 107.412-77.23 181.782-77.231 74.371-185.153 74.371ZM225.385-615.384h438.23v-159.231h-438.23v159.231Zm221.231 312.999q89.461 0 153.23-60.846 63.769-60.846 63.769-149.923v-56.847h-438.23v56.847q0 89.462 65.308 150.116Q356-302.385 446.616-302.385Zm262.383-312.999h32.693q33 0 52.961-27.635 19.962-27.634 19.962-62.827 0-29-21.769-48.884-21.77-19.885-51.154-19.885h-32.693v159.231ZM180.001-140.001v-45.384h599.998v45.384H180.001Zm264.692-430Z"/></svg>

<svg xmlns="http://www.w3.org/2000/svg" width="48" height="48" viewBox="0 -960 960 960"><path d="M446.62-257q-109.47 0-188.04-74.23Q180-405.46 180-513.15v-261.46q0-18.85 13.27-32.12Q206.54-820 225.39-820h516.3q48.56 0 83.43 32.96Q860-754.08 860-705.85q0 54.2-33.54 95.03Q792.92-570 741.69-570H709v56.85q0 107.41-77.23 181.78T446.62-257ZM225.39-615.38h438.23v-159.23H225.39v159.23Zm221.23 313q89.46 0 153.23-60.85 63.77-60.85 63.77-149.92V-570H225.39v56.85q0 89.46 65.3 150.11 65.31 60.66 155.93 60.66Zm262.38-313h32.69q33 0 52.96-27.64 19.96-27.63 19.96-62.83 0-29-21.76-48.88-21.77-19.88-51.16-19.88H709v159.23ZM180-140v-45.39h600V-140H180Zm264.69-430Z"/></svg>
